icons/education.svg

<svg xmlns="http://www.w3.org/2000/svg" width="24" height="24" viewBox="0 0 24 24">
  <path d="M5.5,12.809017 C5.57762255,12.809017 5.65417908,12.8270895 5.7236068,12.8618034 L11.7763932,15.8881966 C11.9171569,15.9585785 12.0828431,15.9585785 12.2236068,15.8881966 L18.2763932,12.8618034 C18.5233825,12.7383088 18.823719,12.8384209 18.9472136,13.0854102 C18.9819275,13.1548379 19,13.2313944 19,13.309017 L19,18.190983 C19,18.380369 18.8929988,18.5535006 18.7236068,18.6381966 L12.2236068,21.8881966 C12.0828431,21.9585785 11.9171569,21.9585785 11.7763932,21.8881966 L5.2763932,18.6381966 C5.10700119,18.5535006 5,18.380369 5,18.190983 L5,13.309017 C5,13.0328746 5.22385763,12.809017 5.5,12.809017 Z M11.7227417,2.05400374 C11.8686626,1.9766924 12.0433451,1.97641607 12.1895099,2.05326536 L12.1895099,2.05326536 L22.6484883,7.55229935 C22.7395084,7.6001551 22.8135591,7.67491165 22.8605493,7.76638154 C22.9867332,8.01200775 22.8899061,8.31341939 22.6442799,8.43960328 L22.6442799,8.43960328 L12.1852852,13.8126315 C12.0413862,13.8865558 11.870613,13.8862892 11.7269455,13.811916 L11.7269455,13.811916 L1.3478209,8.43889621 C1.25745045,8.39211363 1.18350597,8.31887033 1.13586451,8.2289497 C1.00658371,7.98493928 1.09959044,7.68232695 1.34360086,7.55304615 L1.34360086,7.55304615 Z"/>
</svg>

<svg xmlns="http://www.w3.org/2000/svg" viewBox="0 0 24 24">
  <path d="M5.5 12.8a.5.5 0 0 1 .22.06l6.06 3.03c.14.07.3.07.44 0l6.06-3.03a.5.5 0 0 1 .72.45v4.88a.5.5 0 0 1-.28.45l-6.5 3.25a.5.5 0 0 1-.44 0l-6.5-3.25a.5.5 0 0 1-.28-.45v-4.88c0-.28.22-.5.5-.5zm6.22-10.75a.5.5 0 0 1 .47 0l10.46 5.5a.5.5 0 0 1 0 .89l-10.46 5.37a.5.5 0 0 1-.46 0L1.35 8.44a.5.5 0 0 1 0-.89z"/>
</svg>
